X: 133031
T: The CANTY AULD MAN
Q: "Scotch Jig."
R: Jig.
%R: jig
B: James Kerr "Merry Melodies" v.1 p.33 s.0 #31
Z: 2016 John Chambers <jc:trillian.mit.edu>
M: 6/8
L: 1/8
K: G
uD |\
G>AG GAB | (c<e)e e2ug | d>BG d>BG | (F<A)A A2uD |\
G>AG G>AB | (c<e)e e2ug | d>BG c>AF | G<GG G2 :|
|: vA/B/ |\
c>dc c>AF | vd2vB d>BG | e2c d>BG | (F<A)A A2B |\
c>dc c>AF | d2B d>BG | e>fg B>cA | G<GG G2 :|
|: vB/c/ |\
d>BG uD2uB | c>AF D2c | B>GB c>Ac | B>GB A>Bc |\
d>BG D2B | c>AF D2c | B>GB c>Ac | B>cA G2 :|

% %newpage
%%sep 1 1 500
%%sep 1 1 500
%%center IRISH REELS FOR QUADRILLES AND COUNTRY DANCES

%%sep 1 1 500
%%sep 1 1 500

